svgs/automation.svg

<svg width="192" height="192" viewBox="0 0 192 192" fill="none" xmlns="http://www.w3.org/2000/svg">
<path d="M60.4182 141.08C67.7294 142.023 74.4202 136.855 75.3507 129.536C76.2812 122.228 71.1191 115.53 63.7968 114.599C56.4856 113.656 49.7948 118.824 48.8643 126.143C47.9337 133.462 53.0959 140.149 60.4182 141.08Z" stroke="black" stroke-width="8" stroke-linecap="round" stroke-linejoin="round"/>
<path d="M31.0085 116.142C35.8151 120.784 35.0037 128.158 28.9749 131.927L21.9191 136.744C20.3066 137.843 19.5055 139.291 20.3169 141.397L23.1618 148.144C24.0965 150.168 25.5857 150.897 27.6192 150.281L36.1129 148.843C42.5525 147.035 48.5813 151.431 48.8586 158.507L49.4954 167.145C49.6597 169.127 50.5327 170.575 52.823 170.935L60.2794 171.89C62.5594 172.105 63.9562 171.171 64.4595 169.065L67.1606 160.839C68.8039 154.389 75.6337 151.41 81.9398 154.717L89.8275 157.922C91.5119 158.723 93.0936 158.692 94.4595 157.028L98.7012 151.482C99.9337 149.747 99.831 148.185 98.3418 146.799L93.0833 140.133C88.2767 135.481 89.0881 128.117 95.1168 124.348L102.173 119.531C103.785 118.432 104.586 116.984 103.775 114.878L100.93 108.131C99.9953 106.107 98.5061 105.378 96.4726 105.994L87.9789 107.432C81.5393 109.24 75.5105 104.844 75.2332 97.7676L74.5964 89.1301C74.4321 87.1479 73.5591 85.6998 71.2688 85.3403L63.8124 84.3852C61.5324 84.1695 60.1356 85.1041 59.6323 87.2095L56.9312 95.4362C55.2879 101.886 48.458 104.865 42.152 101.557L34.0896 98.353C32.4361 97.5725 30.8955 97.6033 29.5706 99.226L25.4213 104.639C24.2197 106.333 24.3224 107.853 25.0516 108.531L31.0085 116.131V116.142Z" stroke="black" stroke-width="8"/>
<path d="M128.203 77.4033C135.515 78.3459 142.206 73.1782 143.136 65.8593C144.067 58.5514 138.904 51.8534 131.582 50.9219C124.271 49.9793 117.58 55.1469 116.649 62.4659C115.719 69.7738 120.892 76.4718 128.203 77.4033Z" stroke="black" stroke-width="8" stroke-linecap="round" stroke-linejoin="round"/>
<path d="M98.9067 51.7867C103.713 56.4289 102.902 63.8031 96.8731 67.5724L89.8173 72.3892C88.2048 73.4882 87.4037 74.9363 88.2151 77.0418L91.06 83.7895C91.9946 85.8128 93.4839 86.542 95.5174 85.9257L104.011 84.4879C110.451 82.6803 116.479 87.076 116.757 94.1524L117.394 102.79C117.558 104.772 118.431 106.22 120.721 106.58L128.178 107.535C130.458 107.751 131.854 106.816 132.358 104.71L135.059 96.4838C136.702 90.0339 143.522 87.0555 149.838 90.3626L157.726 93.567C159.42 94.3681 160.992 94.3373 162.358 92.6735L166.599 87.1274C167.832 85.3917 167.729 83.8306 166.24 82.4441L160.981 75.7785C156.175 71.1362 156.986 63.762 163.015 59.9928L170.071 55.1759C171.683 54.077 172.484 52.6288 171.673 50.5234L168.828 43.7757C167.894 41.7524 166.404 41.0232 164.371 41.6394L155.877 43.0773C149.437 44.8849 143.409 40.4891 143.131 33.4128L142.495 24.7753C142.33 22.7931 141.457 21.3449 139.167 20.9855L131.711 20.0303C129.431 19.8146 128.034 20.7492 127.541 22.8547L124.84 31.0814C123.196 37.5312 116.367 40.5097 110.06 37.2026L101.998 33.9982C100.345 33.2176 98.804 33.2484 97.4791 34.8712L93.3298 40.2837C92.1282 41.9783 92.2309 43.4984 92.9498 44.1762L98.9067 51.7764V51.7867Z" stroke="black" stroke-width="8"/>
</svg>

<svg width="192" height="192" viewBox="0 0 192 192" fill="none" xmlns="http://www.w3.org/2000/svg"><path d="M60.418 141.08c7.311.943 14.002-4.225 14.933-11.544.93-7.308-4.232-14.006-11.554-14.937-7.311-.943-14.002 4.225-14.933 11.544-.93 7.319 4.232 14.006 11.554 14.937Z" stroke="#000" stroke-width="8" stroke-linecap="round" stroke-linejoin="round"/><path d="M31.009 116.142c4.806 4.642 3.995 12.016-2.034 15.785l-7.056 4.817c-1.612 1.099-2.413 2.547-1.602 4.653l2.845 6.747c.934 2.024 2.424 2.753 4.457 2.137l8.494-1.438c6.44-1.808 12.468 2.588 12.746 9.664l.636 8.638c.165 1.982 1.038 3.43 3.328 3.79l7.456.955c2.28.215 3.677-.719 4.18-2.825l2.702-8.226c1.643-6.45 8.473-9.429 14.779-6.122l7.888 3.205c1.684.801 3.266.77 4.632-.894l4.241-5.546c1.233-1.735 1.13-3.297-.36-4.683l-5.258-6.666c-4.806-4.652-3.995-12.016 2.034-15.785l7.056-4.817c1.612-1.099 2.413-2.547 1.602-4.653l-2.845-6.747c-.935-2.024-2.424-2.753-4.457-2.137l-8.494 1.438c-6.44 1.808-12.469-2.588-12.746-9.664l-.637-8.638c-.164-1.982-1.037-3.43-3.327-3.79l-7.457-.955c-2.28-.216-3.676.72-4.18 2.825l-2.7 8.226c-1.644 6.45-8.474 9.429-14.78 6.121l-8.062-3.204c-1.654-.78-3.195-.75-4.52.873l-4.149 5.413c-1.201 1.694-1.099 3.214-.37 3.892l5.958 7.6v.011Z" stroke="#000" stroke-width="8"/><path d="M128.203 77.403c7.312.943 14.003-4.225 14.933-11.544.931-7.308-4.232-14.006-11.554-14.937-7.311-.943-14.002 4.225-14.933 11.544-.93 7.308 4.243 14.006 11.554 14.937Z" stroke="#000" stroke-width="8" stroke-linecap="round" stroke-linejoin="round"/><path d="M98.907 51.787c4.806 4.642 3.995 12.016-2.034 15.785l-7.056 4.817c-1.612 1.1-2.413 2.547-1.602 4.653l2.845 6.748c.935 2.023 2.424 2.752 4.457 2.136l8.494-1.438c6.44-1.808 12.468 2.588 12.746 9.664l.637 8.638c.164 1.982 1.037 3.43 3.327 3.79l7.457.955c2.28.216 3.676-.719 4.18-2.825l2.701-8.226c1.643-6.45 8.463-9.428 14.779-6.121l7.888 3.204c1.694.801 3.266.77 4.632-.893l4.241-5.547c1.233-1.735 1.13-3.296-.359-4.683l-5.259-6.666c-4.806-4.642-3.995-12.016 2.034-15.785l7.056-4.817c1.612-1.099 2.413-2.547 1.602-4.653l-2.845-6.747c-.934-2.024-2.424-2.753-4.457-2.137l-8.494 1.438c-6.44 1.808-12.468-2.588-12.746-9.664l-.636-8.638c-.165-1.982-1.038-3.43-3.328-3.79l-7.456-.955c-2.28-.215-3.677.72-4.17 2.825l-2.701 8.226c-1.644 6.45-8.473 9.429-14.78 6.122l-8.062-3.205c-1.653-.78-3.194-.75-4.519.873l-4.15 5.413c-1.2 1.694-1.098 3.214-.38 3.892l5.958 7.6v.01Z" stroke="#000" stroke-width="8"/></svg>
